!!!!SEGMENT: pl-wtm--a-43-196-99--001-011_kazuro-stanislaw--25-piesni-dzieciecych-z-fortepianem-op-49-jez.krn
!!!cenid: 19xx:207
!!!COM: Kazuro, Stanisław
!!!COM-rismID: pe50047136
!!!CDT: 1881/08/02-1961/11/30
!!!CNT: Polish
!!!GTL: 25 Pieśni dziecięcych z fortepianem, op. 49
!!!OTL: Jeż
!!!OMV: 011
!!!PDT: 1950
!!!AGN:
!!!YEC: Copyright 2022 Narodowy Instytut Fryderyka Chopina (https://polishscores.org)
!!!YEM: License CC-BY-4.0 (https://creativecommons.org/licenses/by/4.0)
!!!SMS-siglum: PL-Wtm
!!!SMS-shelfmark: A-43.196/99
!!!SMS-variant:
!!!SMS-altvar:
!!!SMS-shelfwork: 001-011 G
!!!NIFC-rismSourceID: 1001164821
!!!NIFC-rismChildID: 1001164821
!!!NIFC-islandoraID: pl-wtm:43198
!!!URL-pdf-islandora: https://repozytorium.nifc.pl/islandora/object/pl-wtm:43198/datastream/PDF/view
!!!URL-scan: https://polish.musicsources.pl/pl/lokalizacje/galeria/druki-muzyczne/22428/13 @EN{Scan on Polish Music Sources Website} @PL{Skany w portalu Dziedzictwo Muzyki Polskiej w otwartym dostępie}
!!!IIIF:
!!!ONB-nifc:
!!!AIN: 1 canto 1 piano
!!!key: G
**kern	**text	**kern	**text	**dynam	**kern	**text	**text	**text	**dynam
*part2	*	*part2	*part2	*part2	*part1	*part1	*part1	*part1	*part1
*staff3	*	*staff2	*staff2	*staff2/3	*staff1	*staff1	*staff1	*staff1	*
*IGacmp	*	*IGacmp	*	*	*	*	*	*	*
*ICklav	*	*ICklav	*	*	*ICvox	*	*	*	*
*Ipiano	*	*Ipiano	*	*	*Icanto	*	*	*	*
*I"	*	*I"	*	*I"	*	*	*	*	*
*I'	*	*I'	*	*I'	*	*	*	*	*
*clefF4	*	*clefG2	*	*	*clefG2	*	*	*	*
*k[f#]	*	*k[f#]	*	*	*k[f#]	*	*	*	*
*G:	*	*G:	*	*	*G:	*	*	*	*
*M2/4	*	*M2/4	*	*	*M2/4	*	*	*	*
*>[A,A,A]	*>[A,A,A]	*>[A,A,A]	*>[A,A,A]	*>[A,A,A]	*>[A,A,A]	*>[A,A,A]	*>[A,A,A]	*>[A,A,A]	*>[A,A,A]
=1	=1	=1	=1	=1	=1	=1	=1	=1	=1
*>A	*>A	*>A	*>A	*>A	*>A	*>A	*>A	*>A	*>A
!!LO:TX:t=P:problem:oddech zapisany jako v
!!LO:TX:t=P:problem:błąd wyświetlania dynamiki w partii pfte (zgłoszony J.I.)
!!LO:TX:a:B:t=Con moto.
2r	.	16bbLL 16b\	.	f	2r	.	.	.	.
.	.	16ddd 16dd\	.	.	.	.	.	.	.
.	.	16bb 16b\	.	.	.	.	.	.	.
.	.	16aaJJ 16a\	.	.	.	.	.	.	.
.	.	8ggL 8g\'	.	.	.	.	.	.	.
.	.	8ee-XJ 8e-X\'	.	.	.	.	.	.	.
=2	=2	=2	=2	=2	=2	=2	=2	=2	=2
*	*	*^	*	*	*	*	*	*	*
!LO:TX:t=P:problem:t. 2-3 - tekst w źródle między pięcioliniami (zapis uzgodniony z J.I.)	!	!	!	!	!	!	!	!	!	!
16d\LL	Tup,	2cc/	2f#\	.	.	2r	.	.	.	.
16e-X\	tup,	.	.	.	.	.	.	.	.	.
16d\	tup,	.	.	.	.	.	.	.	.	.
16e-\JJ	tup,	.	.	.	.	.	.	.	.	.
8d'\L	tup,	.	.	.	.	.	.	.	.	.
8A'\J	tup.	.	.	.	.	.	.	.	.	.
=3	=3	=3	=3	=3	=3	=3	=3	=3	=3	=3
16A-X\LL	Tup,	2f#/	2e 2c\	.	.	2r	.	.	.	.
16B-X\	tup,	.	.	.	.	.	.	.	.	.
16A-\	tup,	.	.	.	.	.	.	.	.	.
16B-\JJ	tup,	.	.	.	.	.	.	.	.	.
8An'\L	tup,	.	.	.	.	.	.	.	.	.
8D'\J	tup.	.	.	.	.	.	.	.	.	.
*	*	*v	*v	*	*	*	*	*	*	*
=4	=4	=4	=4	=4	=4	=4	=4	=4	=4
2DD/	.	8r	.	.	2r	.	.	.	.
.	.	8qgg#X/	.	.	.	.	.	.	.
.	.	4aa\	Szu!	.	.	.	.	.	.
.	.	8qcc#X/	.	.	.	.	.	.	.
.	.	8dd\	szu!	.	.	.	.	.	.
!!LO:PB:g=original
=5	=5	=5	=5	=5	=5	=5	=5	=5	=5
*	*	*	*	*	*	*v:1	*v:2	*v:3	*
!	!	!	!	!	!	!	!	!	!LO:DY:a
4B: 4D: 4GG:\	.	8.bbL 8.b\	.	mp	8.b\	Przy-	Za	Ca-	mp
.	.	16aaK 16a\	.	.	16a/	-szedł	pa-	-łą	.
4r	.	8gg 8g\	.	.	8g/	do	-nto-	noc	.
.	.	8eeJ 8e\	.	.	8e/	nas	-fel	tup,	.
=6	=6	=6	=6	=6	=6	=6	=6	=6	=6
*	*	*^	*	*	*	*	*	*	*
*	*	*	*^	*	*	*	*	*	*	*
2r	.	2ff#/	[2f#\	8.r	.	.	2f#/	jeż,	łap	tup,	.
.	.	.	.	16eeKL 16cc\	.	.	.	.	.	.	.
.	.	.	.	8dd 8b-X\	.	.	.	.	.	.	.
.	.	.	.	8ccJ 8a-X\	.	.	.	.	.	.	.
=7	=7	=7	=7	=7	=7	=7	=7	=7	=7	=7	=7
!	!	!	!	!	!	!	!	!	!	!	!LO:DY:a
2r	.	2b [2g/	8.f#\L]	4ryy	.	mf	8.g/	ten	i	po	mf
.	.	.	16B\Jk	.	.	.	16b\	ko-	z nim	po-	.
.	.	.	8e\L	8dd/L	.	.	8dd\	-lcza-	czła-	-ko-	.
.	.	.	8d\J	8ee/J	.	.	8ee\	-sty	-pu	-ju	.
*	*	*	*v	*v	*	*	*	*	*	*	*
=8	=8	=8	=8	=8	=8	=8	=8	=8	=8	=8
4c#X\	.	2b/	8g\]	.	.	2b\	zwierz,	człap,	łup,	.
.	.	.	4g 4e\	.	.	.	.	.	.	.
8A\L	.	.	.	.	.	.	.	.	.	.
8B\J	.	.	8g 8e\	.	.	.	.	.	.	.
!!LO:LB:g=original
=9	=9	=9	=9	=9	=9	=9	=9	=9	=9	=9
*^	*	*	*	*	*	*	*	*	*	*
*	*	*	*	*	*	*	*	*v:1	*v:2	*v:3	*
4A/	4Fn\	.	8.dd/L	4g 4e-X\	.	.	8.dd\	wy-	to	i	.
.	.	.	16cc/Jk	.	.	.	16cc\	-pił	ga-	tu	.
4F#X/	4D\	.	8b/L	4en 4c\	.	.	8b\	mle-	-ze-	dre-	.
.	.	.	8a/J	.	.	.	8a/	-ko	-tą	-pce,	.
=10	=10	=10	=10	=10	=10	=10	=10	=10	=10	=10	=10
4C/	4FFn\	.	8g/L	4c 4A\	.	.	8g/	z ta-	znów	i	.
.	.	.	8a/J	.	.	.	8a/	-le-	sze-	tu	.
4F#X: 4DD:/	4ryy	.	8e/L	4c\	.	.	8e/	-rzy-	-le-	cho-	.
.	.	.	8d/J	.	.	.	8d/	-ka,	-ści,	-dzi,	.
*v	*v	*	*	*	*	*	*	*	*	*	*
=11	=11	=11	=11	=11	=11	=11	=11	=11	=11	=11
!	!	!	!	!	!	!	!	!	!	!LO:HP:a
4AA 4AAA/	.	8.g/L	4e 4c\	.	.	8.g/	a-	pcha	czy	<
.	.	16a/Jk	.	.	.	16a/	-le	się,	spra-	.
4EE 4EEE/	.	8b/L	4g 4e\	.	.	8b\	od	gdzie	-wo-	.
.	.	8dd/J	.	.	.	8dd\	nas	się	-wać	[[
=12	=12	=12	=12	=12	=12	=12	=12	=12	=12	=12
*^	*	*	*	*	*	*	*	*	*	*
!	!	!	!	!	!	!	!	!	!	!	!LO:DY:a
4d 4G#X 4E\	4ryy	.	8.ff#/L	8.f#\L	.	f	8.ff#\	wciąż	ty-	tak	f
.	.	.	16ee/Jk	16e\Jk	.	.	16ee\	u-	-lko	się	.
4e/	4A#X 4F#\	.	8dd/L	8b-X\L	.	.	8dd\	-my-	zmie-	go-	.
.	.	.	8cc/J	8a-X\J	.	.	8cc\	-ka	-ści	-dzi,	.
!!LO:LB:g=original
=13	=13	=13	=13	=13	=13	=13	=13	=13	=13	=13	=13
*	*	*	*	*	*	*	*	*v:1	*v:2	*v:3	*
!	!	!	!	!	!	!LO:HP:a	!	!	!	!	!LO:HP:a
4ryy	4G\	.	8b/L	4g 4d\	.	>	8b\	i	ten	czy	>
.	.	.	8dd/J	.	.	.	8dd\	pa-	ko-	tak	.
4A/	4Fn\	.	8b/L	8d#X\L	.	.	8b\	-rska	-lcza-	ro-	.
.	.	.	8g/J	8dn\J	.	]]	8g/	jak	-sty	-bi	]]
=14	=14	=14	=14	=14	=14	=14	=14	=14	=14	=14	=14
*	*	*	*	*^	*	*	*	*	*	*	*
!	!	!	!	!	!LO:TX:b:t=m.d.	!	!	!	!	!	!	!
2ryy	8C\L	.	2e/	2c\	(8G</L	.	.	2e/	kot,	zwierz,	jeż?	.
.	8AA\J	.	.	.	8A<J 8E</	.	.	.	.	.	.	.
.	4C 4FFn\	.	.	.	8G#X</L	.	.	.	.	.	.	.
.	.	.	.	.	8A</J)	.	.	.	.	.	.	.
*	*	*	*	*v	*v	*	*	*	*	*	*	*
=15	=15	=15	=15	=15	=15	=15	=15	=15	=15	=15	=15
!	!	!	!	!	!	!	!	!	!	!	!LO:DY:a
4F#X/	4DD\	.	8d/L	4c\	.	mp	8d/	i	ten	czy	mp
.	.	.	8e/	.	.	.	8e/	pa-	ko-	tak	.
4G#X/	4EE\	.	8f#/	4e 4B\	.	.	8f#/	-rska	-lcza-	ro-	.
.	.	.	8b/J	.	.	.	8b\	jak	-sty	-bi	.
=16	=16	=16	=16	=16	=16	=16	=16	=16	=16	=16	=16
*	*	*	*	*^	*	*	*	*	*	*	*
8E/L	8AA\L	.	2g/	8B\L	4c#X/	.	.	4g/	kot.	zwierz!	jeż?	.
8F#/J	8DD\J	.	.	8cnJ 8A\	.	.	.	.	.	.	.	.
4D/	4GG\	.	.	4B 4G\	4ryy	.	.	4r	.	.	.	.
*v	*v	*	*	*	*	*	*	*	*	*	*	*
*	*	*v	*v	*v	*	*	*	*	*	*	*
=:|!	=:|!	=:|!	=:|!	=:|!	=:|!	=:|!	=:|!	=:|!	=:|!
*-	*-	*-	*-	*-	*-	*-	*-	*-	*-
!!!system-decoration: s1{(s2,s3)}
!!!RDF**kern: > = above
!!!RDF**kern: < = below
!!!RDF**kern: N = linked
!!!ENC: Andrzej Gręziak
!!!EED: Katarzyna Serwa
!!!END: 2025-03-28
!!!EEV: 2025-04-02
